src/categories-icons-sprite/categories/svg-cat-home-decor.svg

<svg width="33" height="33" viewBox="0 0 33 33" fill="none" xmlns="http://www.w3.org/2000/svg">
<path class="p-FF637B" d="M21.334 0L20.4059 1.14076L19.4004 0H13.5996L12.6135 0.986133L11.666 0H1.99805V15.5977C1.99805 16.6611 2.86816 17.5312 3.93164 17.5312H4.89844C10.1191 17.5312 14.6051 14.3408 16.5 9.79688C18.3949 14.3408 22.8809 17.5312 28.1016 17.5312H29.0684C30.1318 17.5312 31.002 16.6611 31.002 15.5977V0H21.334Z" fill="#FF637B"/>
<path class="p-E63950" d="M31.002 0V15.5977C31.002 16.6611 30.1318 17.5312 29.0684 17.5312H28.1016C22.8809 17.5312 18.3949 14.3408 16.5 9.79688V0H19.4004L20.4059 1.14076L21.334 0H31.002Z" fill="#E63950"/>
<path class="p-FF637B" d="M1.9976 21.3927C1.9976 20.8924 2.37936 20.4746 2.87771 20.4298L3.9312 20.335L10.3894 19.7549C11.2208 21.1277 11.6656 22.6939 11.6656 24.2988V28.166C11.3158 28.166 1.70859 28.166 1.9976 28.166V21.3927Z" fill="#FF637B"/>
<path class="p-E63950" d="M30.1122 20.3218C30.6147 20.362 31.002 20.7815 31.002 21.2855V28.1661H21.334V24.2989C21.334 22.6939 21.7786 21.1278 22.6101 19.7549L29.0684 20.2383L30.1122 20.3218Z" fill="#E63950"/>
<path class="p-E63950" d="M7.79923 28.166H5.86563V24.2988C5.86563 22.9393 4.83367 21.4476 2.9209 21.3597L3.00965 19.428C5.74008 19.5536 7.79923 21.6477 7.79923 24.2988V28.166Z" fill="#E63950"/>
<path class="p-AE2538" d="M27.1348 28.1662H25.2012V24.299C25.2012 21.6479 27.2603 19.5538 29.9908 19.4282L30.0796 21.3599C28.1667 21.4477 27.1348 22.9394 27.1348 24.299V28.1662Z" fill="#AE2538"/>
<path class="p-E63950" d="M13.5992 0V4.96289C13.5992 8.92676 10.9115 12.3878 7.06367 13.3934L6.59961 11.5178C9.57728 10.7443 11.6656 8.05658 11.6656 4.96289V0H13.5992Z" fill="#E63950"/>
<path class="p-AE2538" d="M26.4 11.5178L25.9359 13.3933C22.0881 12.3878 19.4004 8.92676 19.4004 4.96289V0H21.334V4.96289C21.334 8.05658 23.4223 10.7443 26.4 11.5178Z" fill="#AE2538"/>
<path class="p-FFDA2D" d="M11.666 18.498C11.666 20.1029 10.3706 21.3984 8.76562 21.3984H1.99805V15.5977H8.76562C10.3706 15.5977 11.666 16.8931 11.666 18.498Z" fill="#FFDA2D"/>
<path class="p-FDBF00" d="M31.002 15.5977V21.3984H24.2344C22.6294 21.3984 21.334 20.1029 21.334 18.498C21.334 16.8931 22.6294 15.5977 24.2344 15.5977H31.002Z" fill="#FDBF00"/>
<path class="p-596C76" d="M30.0996 27.1992H2.90039C1.29544 27.1992 0 28.4947 0 30.0996V33H33V30.0996C33 28.4947 31.7046 27.1992 30.0996 27.1992Z" fill="#596C76"/>
<path class="p-465A61" d="M33 30.0996V33H16.5V27.1992H30.0996C31.7046 27.1992 33 28.4947 33 30.0996Z" fill="#465A61"/>
<path class="p-FF637B" d="M21.334 0L20.4059 1.14076L19.4004 0H13.5996L12.6135 0.986133L11.666 0H1.99805V15.5977C1.99805 16.6611 2.86816 17.5312 3.93164 17.5312H4.89844C10.1191 17.5312 14.6051 14.3408 16.5 9.79688C18.3949 14.3408 22.8809 17.5312 28.1016 17.5312H29.0684C30.1318 17.5312 31.002 16.6611 31.002 15.5977V0H21.334Z" fill="#58ADE5"/>
<path class="p-E63950" d="M31.002 0V15.5977C31.002 16.6611 30.1318 17.5312 29.0684 17.5312H28.1016C22.8809 17.5312 18.3949 14.3408 16.5 9.79688V0H19.4004L20.4059 1.14076L21.334 0H31.002Z" fill="#65B3E7"/>
<path class="p-FF637B" d="M1.9976 21.3927C1.9976 20.8924 2.37936 20.4746 2.87771 20.4298L3.9312 20.335L10.3894 19.7549C11.2208 21.1277 11.6656 22.6939 11.6656 24.2988V28.166C11.3158 28.166 1.70859 28.166 1.9976 28.166V21.3927Z" fill="#58ADE5"/>
<path class="p-E63950" d="M30.1122 20.3218C30.6147 20.362 31.002 20.7815 31.002 21.2855V28.1661H21.334V24.2989C21.334 22.6939 21.7786 21.1278 22.6101 19.7549L29.0684 20.2383L30.1122 20.3218Z" fill="#65B3E7"/>
<path class="p-E63950" d="M7.79923 28.166H5.86563V24.2988C5.86563 22.9393 4.83367 21.4476 2.9209 21.3597L3.00965 19.428C5.74008 19.5536 7.79923 21.6477 7.79923 24.2988V28.166Z" fill="#5FBEFF"/>
<path class="p-AE2538" d="M27.1348 28.1662H25.2012V24.299C25.2012 21.6479 27.2603 19.5538 29.9908 19.4282L30.0796 21.3599C28.1667 21.4477 27.1348 22.9394 27.1348 24.299V28.1662Z" fill="#4D98CB"/>
<path class="p-E63950" d="M13.5992 0V4.96289C13.5992 8.92676 10.9115 12.3878 7.06367 13.3934L6.59961 11.5178C9.57728 10.7443 11.6656 8.05658 11.6656 4.96289V0H13.5992Z" fill="#5FBEFF"/>
<path class="p-AE2538" d="M26.4 11.5178L25.9359 13.3933C22.0881 12.3878 19.4004 8.92676 19.4004 4.96289V0H21.334V4.96289C21.334 8.05658 23.4223 10.7443 26.4 11.5178Z" fill="#4D98CB"/>
<path class="p-FFDA2D" d="M11.666 18.498C11.666 20.1029 10.3706 21.3984 8.76562 21.3984H1.99805V15.5977H8.76562C10.3706 15.5977 11.666 16.8931 11.666 18.498Z" fill="#B9DFFC"/>
<path class="p-FDBF00" d="M31.002 15.5977V21.3984H24.2344C22.6294 21.3984 21.334 20.1029 21.334 18.498C21.334 16.8931 22.6294 15.5977 24.2344 15.5977H31.002Z" fill="#A1D1FD"/>
<path class="p-596C76" d="M30.0996 27.1992H2.90039C1.29544 27.1992 0 28.4947 0 30.0996V33H33V30.0996C33 28.4947 31.7046 27.1992 30.0996 27.1992Z" fill="#58ADE5"/>
<path class="p-465A61" d="M33 30.0996V33H16.5V27.1992H30.0996C31.7046 27.1992 33 28.4947 33 30.0996Z" fill="#4D98CB"/>
</svg>

<svg width="33" height="33" fill="none" xmlns="http://www.w3.org/2000/svg"><path class="p-FF637B" d="M21.334 0l-.928 1.14L19.4 0h-5.8l-.986.986L11.665 0H1.998v15.598a1.94 1.94 0 001.934 1.933h.966c5.221 0 9.707-3.19 11.602-7.734 1.895 4.544 6.38 7.734 11.602 7.734h.966a1.94 1.94 0 001.934-1.933V0h-9.668z" fill="#FF637B"/><path class="p-E63950" d="M31.002 0v15.598a1.94 1.94 0 01-1.934 1.933h-.966c-5.221 0-9.707-3.19-11.602-7.734V0h2.9l1.006 1.14.928-1.14h9.668z" fill="#E63950"/><path class="p-FF637B" d="M1.998 21.393c0-.5.381-.918.88-.963l1.053-.095 6.458-.58a8.764 8.764 0 011.277 4.544v3.867H1.998v-6.773z" fill="#FF637B"/><path class="p-E63950" d="M30.112 20.322c.503.04.89.46.89.963v6.881h-9.668V24.3c0-1.605.445-3.171 1.276-4.544l6.458.483 1.044.084zM7.8 28.166H5.865v-3.867c0-1.36-1.032-2.851-2.945-2.94l.089-1.931c2.73.126 4.79 2.22 4.79 4.87v3.868z" fill="#E63950"/><path class="p-AE2538" d="M27.135 28.166H25.2V24.3c0-2.651 2.06-4.745 4.79-4.87l.089 1.93c-1.913.089-2.945 1.58-2.945 2.94v3.867z" fill="#AE2538"/><path class="p-E63950" d="M13.6 0v4.963c0 3.964-2.688 7.425-6.536 8.43L6.6 11.518a6.768 6.768 0 005.066-6.555V0h1.933z" fill="#E63950"/><path class="p-AE2538" d="M26.4 11.518l-.464 1.875c-3.848-1.005-6.536-4.466-6.536-8.43V0h1.934v4.963a6.768 6.768 0 005.066 6.555z" fill="#AE2538"/><path class="p-FFDA2D" d="M11.666 18.498c0 1.605-1.295 2.9-2.9 2.9H1.998v-5.8h6.768c1.605 0 2.9 1.295 2.9 2.9z" fill="#FFDA2D"/><path class="p-FDBF00" d="M31.002 15.598v5.8h-6.768a2.896 2.896 0 01-2.9-2.9c0-1.605 1.295-2.9 2.9-2.9h6.768z" fill="#FDBF00"/><path class="p-596C76" d="M30.1 27.2H2.9A2.896 2.896 0 000 30.1V33h33v-2.9c0-1.605-1.295-2.9-2.9-2.9z" fill="#596C76"/><path class="p-465A61" d="M33 30.1V33H16.5v-5.8h13.6c1.605 0 2.9 1.295 2.9 2.9z" fill="#465A61"/><path class="p-FF637B" d="M21.334 0l-.928 1.14L19.4 0h-5.8l-.986.986L11.665 0H1.998v15.598a1.94 1.94 0 001.934 1.933h.966c5.221 0 9.707-3.19 11.602-7.734 1.895 4.544 6.38 7.734 11.602 7.734h.966a1.94 1.94 0 001.934-1.933V0h-9.668z" fill="#58ADE5"/><path class="p-E63950" d="M31.002 0v15.598a1.94 1.94 0 01-1.934 1.933h-.966c-5.221 0-9.707-3.19-11.602-7.734V0h2.9l1.006 1.14.928-1.14h9.668z" fill="#65B3E7"/><path class="p-FF637B" d="M1.998 21.393c0-.5.381-.918.88-.963l1.053-.095 6.458-.58a8.764 8.764 0 011.277 4.544v3.867H1.998v-6.773z" fill="#58ADE5"/><path class="p-E63950" d="M30.112 20.322c.503.04.89.46.89.963v6.881h-9.668V24.3c0-1.605.445-3.171 1.276-4.544l6.458.483 1.044.084z" fill="#65B3E7"/><path class="p-E63950" d="M7.8 28.166H5.865v-3.867c0-1.36-1.032-2.851-2.945-2.94l.089-1.931c2.73.126 4.79 2.22 4.79 4.87v3.868z" fill="#5FBEFF"/><path class="p-AE2538" d="M27.135 28.166H25.2V24.3c0-2.651 2.06-4.745 4.79-4.87l.089 1.93c-1.913.089-2.945 1.58-2.945 2.94v3.867z" fill="#4D98CB"/><path class="p-E63950" d="M13.6 0v4.963c0 3.964-2.688 7.425-6.536 8.43L6.6 11.518a6.768 6.768 0 005.066-6.555V0h1.933z" fill="#5FBEFF"/><path class="p-AE2538" d="M26.4 11.518l-.464 1.875c-3.848-1.005-6.536-4.466-6.536-8.43V0h1.934v4.963a6.768 6.768 0 005.066 6.555z" fill="#4D98CB"/><path class="p-FFDA2D" d="M11.666 18.498c0 1.605-1.295 2.9-2.9 2.9H1.998v-5.8h6.768c1.605 0 2.9 1.295 2.9 2.9z" fill="#B9DFFC"/><path class="p-FDBF00" d="M31.002 15.598v5.8h-6.768a2.896 2.896 0 01-2.9-2.9c0-1.605 1.295-2.9 2.9-2.9h6.768z" fill="#A1D1FD"/><path class="p-596C76" d="M30.1 27.2H2.9A2.896 2.896 0 000 30.1V33h33v-2.9c0-1.605-1.295-2.9-2.9-2.9z" fill="#58ADE5"/><path class="p-465A61" d="M33 30.1V33H16.5v-5.8h13.6c1.605 0 2.9 1.295 2.9 2.9z" fill="#4D98CB"/></svg>
